src/assets/images/icons/empty-box.svg

<svg width="110" height="77" viewBox="0 0 110 77" fill="none" xmlns="http://www.w3.org/2000/svg">
<path opacity="0.6" d="M75.4514 38.1855L98.9979 31.4584V62.0515C98.9945 63.2753 98.5838 64.4632 97.8308 65.4279C97.0777 66.3926 96.025 67.0792 94.8386 67.3795L57.6454 76.6778C55.8954 77.1075 54.0674 77.1075 52.3174 76.6778L15.1655 67.3795C13.9754 67.0851 12.9182 66.4003 12.163 65.4345C11.4078 64.4686 10.9981 63.2775 10.9994 62.0515V31.4584L34.5458 38.1958C35.2877 38.4159 36.0579 38.5259 36.8317 38.5223C38.2674 38.5182 39.6778 38.1444 40.9271 37.437C42.1764 36.7296 43.2224 35.7124 43.9644 34.4833L54.9986 16.1619L66.05 34.4833C66.7905 35.7086 67.8343 36.7224 69.0806 37.4269C70.327 38.1313 71.7338 38.5027 73.1655 38.5051C73.939 38.511 74.7092 38.4033 75.4514 38.1855Z" fill="#5061FC"/>
<path d="M109.712 19.228L100.861 1.55275C100.601 1.03133 100.184 0.603897 99.6701 0.329788C99.1557 0.0556792 98.5688 -0.0515125 97.9908 0.023092L54.9987 5.50579L70.7593 31.6474C71.0795 32.1751 71.5637 32.5835 72.1379 32.8101C72.7121 33.0366 73.3447 33.069 73.939 32.9021L107.952 23.1913C108.35 23.077 108.717 22.8771 109.029 22.6056C109.34 22.3341 109.589 21.9977 109.756 21.62C109.924 21.2422 110.007 20.8323 110 20.4191C109.992 20.0059 109.894 19.5993 109.712 19.228ZM9.15004 1.55275L0.298623 19.228C0.113347 19.5964 0.0117041 20.0013 0.000952298 20.4135C-0.00979946 20.8258 0.070605 21.2354 0.236425 21.613C0.402245 21.9906 0.64939 22.3269 0.960214 22.598C1.27104 22.869 1.63787 23.0681 2.03453 23.181L36.048 32.8918C36.6423 33.0586 37.2749 33.0263 37.8491 32.7998C38.4233 32.5732 38.9075 32.1648 39.2277 31.6371L54.9987 5.50579L12.0031 0.029967C11.4286 -0.041225 10.8461 0.0668713 10.3354 0.339461C9.82466 0.612051 9.41066 1.03581 9.15004 1.55275Z" fill="#5061FC"/>
<g opacity="0.2">
<path d="M83.5884 58.6127V57.2631C83.5884 56.5473 83.3161 55.9379 82.8312 55.5692C82.3464 55.2004 81.6889 55.1023 81.0032 55.2967L75.8328 56.762C75.1472 56.9563 74.4896 57.427 74.0048 58.0706C73.52 58.7142 73.2476 59.4779 73.2476 60.1938V61.5433" stroke="#222222" stroke-width="1.5" stroke-linecap="round" stroke-linejoin="round"/>
<path d="M78.4171 53.3303C79.8449 52.9257 81.0023 51.3892 81.0023 49.8985C81.0023 48.4078 79.8449 47.5274 78.4171 47.932C76.9893 48.3367 75.8319 49.8731 75.8319 51.3638C75.8319 52.8545 76.9893 53.7349 78.4171 53.3303Z" stroke="#222222" stroke-width="1.5" stroke-linecap="round" stroke-linejoin="round"/>
</g>
<mask id="mask0_1918_45" style="mask-type:alpha" maskUnits="userSpaceOnUse" x="10" y="16" width="89" height="61">
<path opacity="0.6" d="M75.4514 38.1855L98.9979 31.4584V62.0515C98.9945 63.2753 98.5838 64.4632 97.8308 65.4279C97.0777 66.3926 96.025 67.0792 94.8386 67.3795L57.6454 76.6778C55.8954 77.1075 54.0674 77.1075 52.3174 76.6778L15.1655 67.3795C13.9754 67.0851 12.9182 66.4003 12.163 65.4345C11.4078 64.4686 10.9981 63.2775 10.9994 62.0515V31.4584L34.5458 38.1958C35.2877 38.4159 36.0579 38.5259 36.8317 38.5223C38.2674 38.5182 39.6778 38.1444 40.9271 37.437C42.1764 36.7296 43.2224 35.7124 43.9644 34.4833L54.9986 16.1619L66.05 34.4833C66.7905 35.7086 67.8343 36.7224 69.0806 37.4269C70.327 38.1313 71.7338 38.5027 73.1655 38.5051C73.939 38.511 74.7092 38.4033 75.4514 38.1855Z" fill="#5061FC"/>
</mask>
<g mask="url(#mask0_1918_45)">
<path opacity="0.37" d="M54.0893 15.0983H55.5918V78.4605L54.8406 78.51L54.0893 78.4605V15.0983Z" fill="#5061FC"/>
</g>
</svg>

<svg xmlns="http://www.w3.org/2000/svg" width="110" height="77" fill="none"><path fill="#5061FC" d="m75.451 38.186 23.547-6.728v30.594a5.51 5.51 0 0 1-4.16 5.327l-37.193 9.299c-1.75.43-3.578.43-5.328 0l-37.151-9.299a5.48 5.48 0 0 1-4.167-5.328V31.458l23.547 6.738c.742.22 1.512.33 2.286.326a8.36 8.36 0 0 0 7.132-4.039L55 16.162 66.05 34.483a8.33 8.33 0 0 0 7.115 4.022 7.9 7.9 0 0 0 2.286-.32" opacity=".6"/><path fill="#5061FC" d="m109.712 19.228-8.851-17.675a2.81 2.81 0 0 0-2.87-1.53L54.999 5.506l15.76 26.141a2.826 2.826 0 0 0 3.18 1.255l34.013-9.71a2.83 2.83 0 0 0 1.76-3.964M9.15 1.553.299 19.228a2.8 2.8 0 0 0 1.736 3.953l34.013 9.71a2.83 2.83 0 0 0 3.18-1.254l15.77-26.131L12.004.03A2.81 2.81 0 0 0 9.15 1.553"/><g stroke="#222" stroke-linecap="round" stroke-linejoin="round" stroke-width="1.5" opacity=".2"><path d="M83.588 58.613v-1.35c0-.716-.272-1.325-.757-1.694s-1.142-.467-1.828-.272l-5.17 1.465c-.686.194-1.343.665-1.828 1.309s-.757 1.407-.757 2.123v1.35M78.417 53.33c1.428-.404 2.585-1.94 2.585-3.431s-1.157-2.372-2.585-1.967-2.585 1.941-2.585 3.432 1.157 2.37 2.585 1.966"/></g><mask id="a" width="89" height="61" x="10" y="16" maskUnits="userSpaceOnUse" style="mask-type:alpha"><path fill="#5061FC" d="m75.451 38.186 23.547-6.728v30.594a5.51 5.51 0 0 1-4.16 5.327l-37.193 9.299c-1.75.43-3.578.43-5.328 0l-37.151-9.299a5.48 5.48 0 0 1-4.167-5.328V31.458l23.547 6.738c.742.22 1.512.33 2.286.326a8.36 8.36 0 0 0 7.132-4.039L55 16.162 66.05 34.483a8.33 8.33 0 0 0 7.115 4.022 7.9 7.9 0 0 0 2.286-.32" opacity=".6"/></mask><g mask="url(#a)"><path fill="#5061FC" d="M54.09 15.098h1.502v63.363l-.751.049-.752-.05z" opacity=".37"/></g></svg>
